newicons/emoji_softball.svg

<?xml version="1.0" encoding="UTF-8" standalone="no"?>
<svg
   version="1.2"
   viewBox="0 0 48 48"
   id="svg32"
   xmlns="http://www.w3.org/2000/svg"
   xmlns:svg="http://www.w3.org/2000/svg">
  <defs
     id="defs1" />
  <path
     d="m 10.178565,7.535525 a 21.490948,21.490946 0 0 1 0,32.92895"
     fill="none"
     stroke="#ffffff"
     stroke-linecap="round"
     stroke-linejoin="round"
     stroke-width="1"
     id="path1"
     style="stroke-width:1;stroke-dasharray:none" />
  <path
     d="m 38.205362,7.868084 a 21.484652,21.48465 0 0 0 0,32.263832"
     fill="none"
     stroke="#ffffff"
     stroke-linecap="round"
     stroke-linejoin="round"
     stroke-width="1"
     id="path2"
     style="stroke-width:1;stroke-dasharray:none" />
  <path
     d="M 14.103084,40.897471 12.938245,37.667094 9.6556544,36.660433"
     fill="none"
     stroke="#ffffff"
     stroke-linecap="round"
     stroke-linejoin="round"
     stroke-width="1"
     id="path3"
     style="stroke-width:1;stroke-dasharray:none" />
  <path
     d="M 17.594533,36.239648 15.70637,33.3717 12.279423,33.160539"
     fill="none"
     stroke="#ffffff"
     stroke-linecap="round"
     stroke-linejoin="round"
     stroke-width="1"
     id="path4"
     style="stroke-width:1;stroke-dasharray:none" />
  <path
     d="m 19.924212,30.997484 -2.516269,-2.337357 -3.37934,0.610446"
     fill="none"
     stroke="#ffffff"
     stroke-linecap="round"
     stroke-linejoin="round"
     stroke-width="1"
     id="path5"
     style="stroke-width:1;stroke-dasharray:none" />
  <path
     d="m 20.926266,25.472751 -3.01077,-1.651661 -3.127483,1.417464"
     fill="none"
     stroke="#ffffff"
     stroke-linecap="round"
     stroke-linejoin="round"
     stroke-width="1"
     id="path6"
     style="stroke-width:1;stroke-dasharray:none" />
  <path
     d="M 20.38723,19.306855 17.060871,18.453767 14.382585,20.603"
     fill="none"
     stroke="#ffffff"
     stroke-linecap="round"
     stroke-linejoin="round"
     stroke-width="1"
     id="path7"
     style="stroke-width:1;stroke-dasharray:none" />
  <path
     d="m 18.368533,13.216979 -3.433859,-0.01459 -2.071679,2.738947"
     fill="none"
     stroke="#ffffff"
     stroke-linecap="round"
     stroke-linejoin="round"
     stroke-width="1"
     id="path8"
     style="stroke-width:1;stroke-dasharray:none" />
  <path
     d="m 15.136621,8.146048 -3.338645,0.80318 -1.361411,3.152822"
     fill="none"
     stroke="#ffffff"
     stroke-linecap="round"
     stroke-linejoin="round"
     stroke-width="1"
     id="path9"
     style="stroke-width:1;stroke-dasharray:none" />
  <path
     d="m 34.664771,40.897471 1.164841,-3.230377 3.282591,-1.006661"
     fill="none"
     stroke="#ffffff"
     stroke-linecap="round"
     stroke-linejoin="round"
     stroke-width="1"
     id="path10"
     style="stroke-width:1;stroke-dasharray:none" />
  <path
     d="M 31.173324,36.239648 33.061485,33.3717 36.488434,33.160539"
     fill="none"
     stroke="#ffffff"
     stroke-linecap="round"
     stroke-linejoin="round"
     stroke-width="1"
     id="path11"
     style="stroke-width:1;stroke-dasharray:none" />
  <path
     d="m 28.843644,30.997484 2.516269,-2.337357 3.379341,0.610446"
     fill="none"
     stroke="#ffffff"
     stroke-linecap="round"
     stroke-linejoin="round"
     stroke-width="1"
     id="path12"
     style="stroke-width:1;stroke-dasharray:none" />
  <path
     d="m 27.84159,25.472751 3.010769,-1.651661 3.127484,1.417464"
     fill="none"
     stroke="#ffffff"
     stroke-linecap="round"
     stroke-linejoin="round"
     stroke-width="1"
     id="path13"
     style="stroke-width:1;stroke-dasharray:none" />
  <path
     d="M 28.380626,19.306855 31.706984,18.453767 34.385272,20.603"
     fill="none"
     stroke="#ffffff"
     stroke-linecap="round"
     stroke-linejoin="round"
     stroke-width="1"
     id="path14"
     style="stroke-width:1;stroke-dasharray:none" />
  <path
     d="m 30.399323,13.216979 3.433859,-0.01459 2.071679,2.738947"
     fill="none"
     stroke="#ffffff"
     stroke-linecap="round"
     stroke-linejoin="round"
     stroke-width="1"
     id="path15"
     style="stroke-width:1;stroke-dasharray:none" />
  <path
     d="m 33.631236,8.146048 3.338644,0.80318 1.361411,3.152822"
     fill="none"
     stroke="#ffffff"
     stroke-linecap="round"
     stroke-linejoin="round"
     stroke-width="1"
     id="path16"
     style="stroke-width:1;stroke-dasharray:none" />
  <path
     d="M 14.103084,40.897471 12.938245,37.667094 9.6556544,36.660433"
     fill="none"
     stroke="#ffffff"
     stroke-linecap="round"
     stroke-linejoin="round"
     stroke-width="1"
     id="path17"
     style="stroke-width:1;stroke-dasharray:none" />
  <path
     d="M 17.594533,36.239648 15.70637,33.3717 12.279423,33.160539"
     fill="none"
     stroke="#ffffff"
     stroke-linecap="round"
     stroke-linejoin="round"
     stroke-width="1"
     id="path18"
     style="stroke-width:1;stroke-dasharray:none" />
  <path
     d="M 17.594533,36.239648 15.70637,33.3717 12.279423,33.160539"
     fill="none"
     stroke="#ffffff"
     stroke-linecap="round"
     stroke-linejoin="round"
     stroke-width="1"
     id="path19"
     style="stroke-width:1;stroke-dasharray:none" />
  <path
     d="m 19.924212,30.997484 -2.516269,-2.337357 -3.37934,0.610446"
     fill="none"
     stroke="#ffffff"
     stroke-linecap="round"
     stroke-linejoin="round"
     stroke-width="1"
     id="path20"
     style="stroke-width:1;stroke-dasharray:none" />
  <path
     d="m 20.926266,25.472751 -3.01077,-1.651661 -3.127483,1.417464"
     fill="none"
     stroke="#ffffff"
     stroke-linecap="round"
     stroke-linejoin="round"
     stroke-width="1"
     id="path21"
     style="stroke-width:1;stroke-dasharray:none" />
  <path
     d="M 20.38723,19.306855 17.060871,18.453767 14.382585,20.603"
     fill="none"
     stroke="#ffffff"
     stroke-linecap="round"
     stroke-linejoin="round"
     stroke-width="1"
     id="path22"
     style="stroke-width:1;stroke-dasharray:none" />
  <path
     d="m 18.368533,13.216979 -3.433859,-0.01459 -2.071679,2.738947"
     fill="none"
     stroke="#ffffff"
     stroke-linecap="round"
     stroke-linejoin="round"
     stroke-width="1"
     id="path23"
     style="stroke-width:1;stroke-dasharray:none" />
  <path
     d="m 15.136621,8.146048 -3.338645,0.80318 -1.361411,3.152822"
     fill="none"
     stroke="#ffffff"
     stroke-linecap="round"
     stroke-linejoin="round"
     stroke-width="1"
     id="path24"
     style="stroke-width:1;stroke-dasharray:none" />
  <path
     d="m 34.664771,40.897471 1.164841,-3.230377 3.282591,-1.006661"
     fill="none"
     stroke="#ffffff"
     stroke-linecap="round"
     stroke-linejoin="round"
     stroke-width="1"
     id="path25"
     style="stroke-width:1;stroke-dasharray:none" />
  <path
     d="M 31.173324,36.239648 33.061485,33.3717 36.488434,33.160539"
     fill="none"
     stroke="#ffffff"
     stroke-linecap="round"
     stroke-linejoin="round"
     stroke-width="1"
     id="path26"
     style="stroke-width:1;stroke-dasharray:none" />
  <path
     d="m 28.843644,30.997484 2.516269,-2.337357 3.379341,0.610446"
     fill="none"
     stroke="#ffffff"
     stroke-linecap="round"
     stroke-linejoin="round"
     stroke-width="1"
     id="path27"
     style="stroke-width:1;stroke-dasharray:none" />
  <path
     d="m 27.84159,25.472751 3.010769,-1.651661 3.127484,1.417464"
     fill="none"
     stroke="#ffffff"
     stroke-linecap="round"
     stroke-linejoin="round"
     stroke-width="1"
     id="path28"
     style="stroke-width:1;stroke-dasharray:none" />
  <path
     d="M 28.380626,19.306855 31.706984,18.453767 34.385272,20.603"
     fill="none"
     stroke="#ffffff"
     stroke-linecap="round"
     stroke-linejoin="round"
     stroke-width="1"
     id="path29"
     style="stroke-width:1;stroke-dasharray:none" />
  <path
     d="m 30.399323,13.216979 3.433859,-0.01459 2.071679,2.738947"
     fill="none"
     stroke="#ffffff"
     stroke-linecap="round"
     stroke-linejoin="round"
     stroke-width="1"
     id="path30"
     style="stroke-width:1;stroke-dasharray:none" />
  <path
     d="m 33.631236,8.146048 3.338644,0.80318 1.361411,3.152822"
     fill="none"
     stroke="#ffffff"
     stroke-linecap="round"
     stroke-linejoin="round"
     stroke-width="1"
     id="path31"
     style="stroke-width:1;stroke-dasharray:none" />
  <path
     d="M 2.4999906,24 A 21.500009,21.500008 0 1 0 45.500009,24 21.500009,21.500008 0 1 0 2.4999906,24"
     fill="none"
     stroke="#ffffff"
     stroke-linecap="round"
     stroke-linejoin="round"
     stroke-width="1"
     id="path32"
     style="stroke-width:1;stroke-dasharray:none" />
</svg>

<?xml version="1.0" encoding="UTF-8"?><svg id="a" xmlns="http://www.w3.org/2000/svg" viewBox="0 0 48 48"><defs><style>.ah{fill:none;stroke:#fff;stroke-linecap:round;stroke-linejoin:round;}</style></defs><path id="b" class="ah" d="M10.1786,7.5355c9.0931,7.6284,10.2805,21.1838,2.6521,30.2769-.8051.9596-1.6925,1.847-2.6521,2.6521"/><path id="c" class="ah" d="M38.2054,7.8681c-8.9094,7.8368-9.7789,21.4123-1.9421,30.3218.6053.6881,1.254,1.3368,1.9421,1.9421"/><path id="d" class="ah" d="M14.1031,40.8975l-1.1648-3.2304-3.2826-1.0067"/><path id="e" class="ah" d="M17.5945,36.2396l-1.8882-2.8679-3.4269-.2112"/><path id="f" class="ah" d="M19.9242,30.9975l-2.5163-2.3374-3.3793.6104"/><path id="g" class="ah" d="M20.9263,25.4728l-3.0108-1.6517-3.1275,1.4175"/><path id="h" class="ah" d="M20.3872,19.3069l-3.3264-.8531-2.6783,2.1492"/><path id="i" class="ah" d="M18.3685,13.217l-3.4339-.0146-2.0717,2.7389"/><path id="j" class="ah" d="M15.1366,8.146l-3.3386.8032-1.3614,3.1528"/><path id="k" class="ah" d="M34.6648,40.8975l1.1648-3.2304,3.2826-1.0067"/><path id="l" class="ah" d="M31.1733,36.2396l1.8882-2.8679,3.4269-.2112"/><path id="m" class="ah" d="M28.8436,30.9975l2.5163-2.3374,3.3793.6104"/><path id="n" class="ah" d="M27.8416,25.4728l3.0108-1.6517,3.1275,1.4175"/><path id="o" class="ah" d="M28.3806,19.3069l3.3264-.8531,2.6783,2.1492"/><path id="p" class="ah" d="M30.3993,13.217l3.4339-.0146,2.0717,2.7389"/><path id="q" class="ah" d="M33.6312,8.146l3.3386.8032,1.3614,3.1528"/><path id="r" class="ah" d="M14.1031,40.8975l-1.1648-3.2304-3.2826-1.0067"/><path id="s" class="ah" d="M17.5945,36.2396l-1.8882-2.8679-3.4269-.2112"/><path id="t" class="ah" d="M17.5945,36.2396l-1.8882-2.8679-3.4269-.2112"/><path id="u" class="ah" d="M19.9242,30.9975l-2.5163-2.3374-3.3793.6104"/><path id="v" class="ah" d="M20.9263,25.4728l-3.0108-1.6517-3.1275,1.4175"/><path id="w" class="ah" d="M20.3872,19.3069l-3.3264-.8531-2.6783,2.1492"/><path id="x" class="ah" d="M18.3685,13.217l-3.4339-.0146-2.0717,2.7389"/><path id="y" class="ah" d="M15.1366,8.146l-3.3386.8032-1.3614,3.1528"/><path id="z" class="ah" d="M34.6648,40.8975l1.1648-3.2304,3.2826-1.0067"/><path id="aa" class="ah" d="M31.1733,36.2396l1.8882-2.8679,3.4269-.2112"/><path id="ab" class="ah" d="M28.8436,30.9975l2.5163-2.3374,3.3793.6104"/><path id="ac" class="ah" d="M27.8416,25.4728l3.0108-1.6517,3.1275,1.4175"/><path id="ad" class="ah" d="M28.3806,19.3069l3.3264-.8531,2.6783,2.1492"/><path id="ae" class="ah" d="M30.3993,13.217l3.4339-.0146,2.0717,2.7389"/><path id="af" class="ah" d="M33.6312,8.146l3.3386.8032,1.3614,3.1528"/><path id="ag" class="ah" d="M2.5,24c-.0032,11.8741,9.6202,21.5026,21.4943,21.5057,11.8741.0032,21.5026-9.6202,21.5057-21.4943v-.0115c.0032-11.8741-9.6202-21.5026-21.4943-21.5057-11.8741-.0032-21.5026,9.6202-21.5057,21.4943,0,.0038,0,.0076,0,.0115"/></svg>
